public/media/approved_refraction-festival.svg

<?xml version="1.0" encoding="utf-8"?>
<!-- Generator: Adobe Illustrator 24.3.0, SVG Export Plug-In . SVG Version: 6.00 Build 0)  -->
<svg version="1.1" id="Layer_1" xmlns="http://www.w3.org/2000/svg" xmlns:xlink="http://www.w3.org/1999/xlink" x="0px" y="0px"
	 width="519px" height="174px" viewBox="0 0 519 174" style="enable-background:new 0 0 519 174;" xml:space="preserve">
<path d="M61.3,57.2c-2.2-11-7.6-13.8-14.5-14.4v-0.4c7.6-0.5,17.6-4.3,17.6-19c0-13.3-8.2-21.3-24.3-21.3H0.3V76h15.2V49h19.2
	c5.3,0,9.5,0.9,10.8,8.3c1.1,6.4,1.7,15.8,4.5,18.7h17.5C64,72.8,63.2,66.4,61.3,57.2z M34.2,36.1H15.5v-21h21.1
	c8.7,0,12.5,4.1,12.5,10.3C49,34.9,39.9,36.1,34.2,36.1z M97.7,20.8c-17.7,0-29.2,11.9-29.2,29c0,16.4,10.9,27.4,28.8,27.4
	c13.1,0,24.4-5.5,29-18.2l-12.4-3.8c-2,7.5-8.3,10.8-15.7,10.8c-9.9,0-14-6-14.7-14.4l42.7,0.1C126.7,31.6,114.8,20.8,97.7,20.8z
	 M97.7,31.7c6.8,0,11.5,3.4,13.1,10.8H84C85.8,35.1,90.8,31.7,97.7,31.7z M166.4,22.2h-15.7v-6.4c0-3.6,1-7.3,9-7.3
	c2,0,4.5,0.3,6.9,0.7v-7c-3.1-0.7-6.2-1.2-9.8-1.2c-11.2,0-17.6,5.5-17.6,14.3v7h-9.5v8.4h9.5V76h11.5V30.6h15.7L166.4,22.2
	L166.4,22.2z M207.2,21.6c-3.1,0-6.4,0.6-8.8,1.7c-6.7,3-10,8.4-12.2,17.2h-0.1V22.2h-11.2V76h11.5V56.8c0-14.6,7.8-25.2,20.8-25.2
	c1.8,0,3.4,0.3,4.9,0.6v-10C210.5,21.8,208.9,21.6,207.2,21.6z M270.9,70.3c-3.7,0-4.4-2.3-4.4-6.1V40.9c0-11.7-8.3-19.5-22.7-19.5
	c-10.8,0-21,4.3-25.9,18.1l7,3c3.8-11.3,10.1-14.8,18.1-14.8c8.9,0,15.1,4.6,15.3,12.7c-9.5,2.6-20,5.8-24.5,7.2
	c-10.4,3.2-16.7,6.5-16.7,14.7c0,8.1,6.6,14.9,18.1,14.9c9.4,0,19.2-4.6,23.3-12.7v4c0,5.3,2.8,8.6,9.3,8.6c2.8,0,5.7-0.8,7.4-1.8
	v-5.8C274.1,69.9,272.6,70.3,270.9,70.3z M237.4,70.4c-8.4,0-11.6-4.7-11.6-9.1c0-4.1,2.6-5.6,10.1-8.1c3.8-1.3,14.6-4.6,22.5-6.9
	v10.8C256.9,66,246.3,70.4,237.4,70.4z M332.3,53l-8.3-1c-1.2,10.8-7.4,18.5-19.4,18.5c-12.2,0-19.4-7.8-19.4-21.1
	c0-14.2,8.4-21.6,19.5-21.6c10.7,0,16.8,6.7,18.8,16.1l7.9-1.8c-2.3-12.7-12.8-20.9-26.8-20.9c-15.7,0-28.1,10.9-28.1,28.7
	c0,16,10.2,27.1,27.3,27.1C320.4,77.1,330.2,67.3,332.3,53z M335.2,22.4v6.4h9.9v35.6c0,7.5,3.1,12.4,14.5,12.4
	c4.3,0,7.8-0.4,12.4-1.3v-6.3c-3.6,0.7-6.4,1.2-9.2,1.2c-7.4,0-9.2-2.5-9.2-8.8V28.8h18.3v-6.4h-18.3l-0.2-15.7h-4l-3.6,15.7H335.2z
	 M385.5,2.1v9.7h8.6V2.1H385.5z M385.6,76h8.4V22.4h-8.4V76z M432,21.3c-17.5,0-28.6,11.9-28.6,27.7c0,15.9,10.9,28.2,28.6,28.2
	c17.4,0,28.4-12.3,28.4-28.2C460.4,33.2,449.4,21.3,432,21.3z M432,70.4c-12.2,0-20-8.3-20-21.3c0-12.8,7.8-21.3,20-21.3
	c12,0,19.6,8.6,19.6,21.3C451.7,62.1,444.1,70.4,432,70.4z M497.5,21.3c-10.6,0-18.1,5.3-21.3,14.2H476V22.4h-8.1V76h8.4V47.1
	c0-10.8,6.8-18.9,18.1-18.9c9.9,0,15.3,5.6,15.3,16V76h8.4V42.9C518.2,29.3,510.5,21.3,497.5,21.3z M54.4,105.4v-7.3H2.2V172h8.4
	v-33.1h36.9v-7.3H10.6v-26.2C10.6,105.4,54.4,105.4,54.4,105.4z M101.3,151.8c-2.8,9.7-9.8,14.7-19.4,14.7c-12.4,0-19-7.8-19.4-20.1
	H108c0.1-18.5-10.6-29.2-26.6-29.2c-17,0-27.1,12.2-27.1,28.7c0,15.9,9.9,27.1,27,27.1c12.9,0,22.9-6.3,27.2-19L101.3,151.8z
	 M81.4,123.9c10,0,16.5,6.3,17.9,16.6H62.7C64.3,129.7,71.1,123.9,81.4,123.9z M115.5,158.1c3.9,9.9,12.8,15,27.2,15
	s24.9-6.6,24.9-17.8c0-10.9-8.3-14.2-17.6-15.1c-4.7-0.4-10.4-0.8-13.8-1.1c-6-0.5-8.1-2-8.1-6c0-4.6,5.7-7.9,13.4-7.9
	c7.3,0,13.2,2.9,17.4,8.8l7-5.6c-5.3-8.1-15.1-11.3-24.7-11.3c-13.4,0-23.4,6.7-23.4,17.2c0,10.2,7.7,13.6,15.6,14.4
	c3.7,0.3,10.1,0.7,14.6,1.1c6.7,0.6,9.5,2.3,9.5,6.4c0,5.4-6.5,8.5-14.8,8.5c-9.3,0-15.8-3.4-18.7-10.2L115.5,158.1z M172.1,118.2
	v8.4h9.3v33.1c0,8.2,3.6,13.1,15.8,13.1c5.2,0,8.6-0.4,13.3-1.3v-8.3c-3.3,0.6-6.1,1.1-8.8,1.1c-6.9,0-8.7-2.2-8.7-8.8v-28.9h17.2
	v-8.4H193l-0.2-15.7h-5.3l-5.1,15.7H172.1z M219.6,98.1v13.1h15.6V98.1H219.6z M219.8,172H235v-54h-15.2V172z M287.6,118l-14.8,40.2
	h-0.6L257.9,118h-15.7l21.4,54h17.1l22-54H287.6z M366.9,159.4c-3.6,0-3.6-2.9-3.6-5.1V138c0-13.1-8.9-21.4-26.4-21.4
	c-13.5,0-24.3,4.4-29.9,18.3l14.2,5.3c3.4-8.5,8.7-10.8,14.2-10.8c5.4,0,9.4,2.5,9.6,7.5c-11,3.3-20.6,5.9-25.1,7.4
	c-9.2,3.1-13.7,7.2-13.7,14.1c0,8.3,7.4,14.8,18.2,14.8c10.4,0,17.4-5.8,20.8-12.6h0.4v1.8c0,6.5,3.5,10.5,13.2,10.5
	c4.5,0,9.2-1.1,12-2.3l0.1-11.6C369.4,159.3,367.9,159.4,366.9,159.4z M331.7,159.8c-4.8,0-7-2.7-7-5.4c0-2.3,1.6-3.4,5.9-5
	c2.5-0.9,9.4-3.2,14.3-4.9v8.3C343.4,156.4,338,159.8,331.7,159.8z M378.4,172h18.5V98.1h-18.5V172z"/>
</svg>

<svg width="519" height="174" viewBox="0 0 519 174" fill="none" xmlns="http://www.w3.org/2000/svg">
<path d="M61.3 57.2C59.1 46.2 53.7 43.4 46.8 42.8V42.4C54.4 41.9 64.4 38.1 64.4 23.4C64.4 10.1 56.2 2.1 40.1 2.1H0.300003V76H15.5V49H34.7C40 49 44.2 49.9 45.5 57.3C46.6 63.7 47.2 73.1 50 76H67.5C64 72.8 63.2 66.4 61.3 57.2ZM34.2 36.1H15.5V15.1H36.6C45.3 15.1 49.1 19.2 49.1 25.4C49 34.9 39.9 36.1 34.2 36.1ZM97.7 20.8C80 20.8 68.5 32.7 68.5 49.8C68.5 66.2 79.4 77.2 97.3 77.2C110.4 77.2 121.7 71.7 126.3 59L113.9 55.2C111.9 62.7 105.6 66 98.2 66C88.3 66 84.2 60 83.5 51.6L126.2 51.7C126.7 31.6 114.8 20.8 97.7 20.8ZM97.7 31.7C104.5 31.7 109.2 35.1 110.8 42.5H84C85.8 35.1 90.8 31.7 97.7 31.7ZM166.4 22.2H150.7V15.8C150.7 12.2 151.7 8.5 159.7 8.5C161.7 8.5 164.2 8.8 166.6 9.2V2.2C163.5 1.5 160.4 1 156.8 1C145.6 1 139.2 6.5 139.2 15.3V22.3H129.7V30.7H139.2V76H150.7V30.6H166.4V22.2ZM207.2 21.6C204.1 21.6 200.8 22.2 198.4 23.3C191.7 26.3 188.4 31.7 186.2 40.5H186.1V22.2H174.9V76H186.4V56.8C186.4 42.2 194.2 31.6 207.2 31.6C209 31.6 210.6 31.9 212.1 32.2V22.2C210.5 21.8 208.9 21.6 207.2 21.6ZM270.9 70.3C267.2 70.3 266.5 68 266.5 64.2V40.9C266.5 29.2 258.2 21.4 243.8 21.4C233 21.4 222.8 25.7 217.9 39.5L224.9 42.5C228.7 31.2 235 27.7 243 27.7C251.9 27.7 258.1 32.3 258.3 40.4C248.8 43 238.3 46.2 233.8 47.6C223.4 50.8 217.1 54.1 217.1 62.3C217.1 70.4 223.7 77.2 235.2 77.2C244.6 77.2 254.4 72.6 258.5 64.5V68.5C258.5 73.8 261.3 77.1 267.8 77.1C270.6 77.1 273.5 76.3 275.2 75.3V69.5C274.1 69.9 272.6 70.3 270.9 70.3ZM237.4 70.4C229 70.4 225.8 65.7 225.8 61.3C225.8 57.2 228.4 55.7 235.9 53.2C239.7 51.9 250.5 48.6 258.4 46.3V57.1C256.9 66 246.3 70.4 237.4 70.4ZM332.3 53L324 52C322.8 62.8 316.6 70.5 304.6 70.5C292.4 70.5 285.2 62.7 285.2 49.4C285.2 35.2 293.6 27.8 304.7 27.8C315.4 27.8 321.5 34.5 323.5 43.9L331.4 42.1C329.1 29.4 318.6 21.2 304.6 21.2C288.9 21.2 276.5 32.1 276.5 49.9C276.5 65.9 286.7 77 303.8 77C320.4 77.1 330.2 67.3 332.3 53ZM335.2 22.4V28.8H345.1V64.4C345.1 71.9 348.2 76.8 359.6 76.8C363.9 76.8 367.4 76.4 372 75.5V69.2C368.4 69.9 365.6 70.4 362.8 70.4C355.4 70.4 353.6 67.9 353.6 61.6V28.8H371.9V22.4H353.6L353.4 6.7H349.4L345.8 22.4H335.2ZM385.5 2.1V11.8H394.1V2.1H385.5ZM385.6 76H394V22.4H385.6V76ZM432 21.3C414.5 21.3 403.4 33.2 403.4 49C403.4 64.9 414.3 77.2 432 77.2C449.4 77.2 460.4 64.9 460.4 49C460.4 33.2 449.4 21.3 432 21.3ZM432 70.4C419.8 70.4 412 62.1 412 49.1C412 36.3 419.8 27.8 432 27.8C444 27.8 451.6 36.4 451.6 49.1C451.7 62.1 444.1 70.4 432 70.4ZM497.5 21.3C486.9 21.3 479.4 26.6 476.2 35.5H476V22.4H467.9V76H476.3V47.1C476.3 36.3 483.1 28.2 494.4 28.2C504.3 28.2 509.7 33.8 509.7 44.2V76H518.1V42.9C518.2 29.3 510.5 21.3 497.5 21.3ZM54.4 105.4V98.1H2.2V172H10.6V138.9H47.5V131.6H10.6V105.4C10.6 105.4 54.4 105.4 54.4 105.4ZM101.3 151.8C98.5 161.5 91.5 166.5 81.9 166.5C69.5 166.5 62.9 158.7 62.5 146.4H108C108.1 127.9 97.4 117.2 81.4 117.2C64.4 117.2 54.3 129.4 54.3 145.9C54.3 161.8 64.2 173 81.3 173C94.2 173 104.2 166.7 108.5 154L101.3 151.8ZM81.4 123.9C91.4 123.9 97.9 130.2 99.3 140.5H62.7C64.3 129.7 71.1 123.9 81.4 123.9ZM115.5 158.1C119.4 168 128.3 173.1 142.7 173.1C157.1 173.1 167.6 166.5 167.6 155.3C167.6 144.4 159.3 141.1 150 140.2C145.3 139.8 139.6 139.4 136.2 139.1C130.2 138.6 128.1 137.1 128.1 133.1C128.1 128.5 133.8 125.2 141.5 125.2C148.8 125.2 154.7 128.1 158.9 134L165.9 128.4C160.6 120.3 150.8 117.1 141.2 117.1C127.8 117.1 117.8 123.8 117.8 134.3C117.8 144.5 125.5 147.9 133.4 148.7C137.1 149 143.5 149.4 148 149.8C154.7 150.4 157.5 152.1 157.5 156.2C157.5 161.6 151 164.7 142.7 164.7C133.4 164.7 126.9 161.3 124 154.5L115.5 158.1ZM172.1 118.2V126.6H181.4V159.7C181.4 167.9 185 172.8 197.2 172.8C202.4 172.8 205.8 172.4 210.5 171.5V163.2C207.2 163.8 204.4 164.3 201.7 164.3C194.8 164.3 193 162.1 193 155.5V126.6H210.2V118.2H193L192.8 102.5H187.5L182.4 118.2H172.1ZM219.6 98.1V111.2H235.2V98.1H219.6ZM219.8 172H235V118H219.8V172ZM287.6 118L272.8 158.2H272.2L257.9 118H242.2L263.6 172H280.7L302.7 118H287.6ZM366.9 159.4C363.3 159.4 363.3 156.5 363.3 154.3V138C363.3 124.9 354.4 116.6 336.9 116.6C323.4 116.6 312.6 121 307 134.9L321.2 140.2C324.6 131.7 329.9 129.4 335.4 129.4C340.8 129.4 344.8 131.9 345 136.9C334 140.2 324.4 142.8 319.9 144.3C310.7 147.4 306.2 151.5 306.2 158.4C306.2 166.7 313.6 173.2 324.4 173.2C334.8 173.2 341.8 167.4 345.2 160.6H345.6V162.4C345.6 168.9 349.1 172.9 358.8 172.9C363.3 172.9 368 171.8 370.8 170.6L370.9 159C369.4 159.3 367.9 159.4 366.9 159.4ZM331.7 159.8C326.9 159.8 324.7 157.1 324.7 154.4C324.7 152.1 326.3 151 330.6 149.4C333.1 148.5 340 146.2 344.9 144.5V152.8C343.4 156.4 338 159.8 331.7 159.8ZM378.4 172H396.9V98.1H378.4V172Z" fill="white"/>
</svg>
